X:287
T: Der Ring (3-89), S. 246
N: P1062
O: Lothringen
S: PINCK, Louis: Verklingende Weisen, Bd3, Metz 1933]
R: Eheversprechen]
M: 2/4
L: 1/16
K: E
E2 | E2=G2F2E2 | =D4D3F | =G2B2B2A2 | AB3z2
E2 | E2=G2F2E2 | =D4D3F | =G2B2B2A2 | AB3
=G2A2 | B2B2B2=c2 | B4A2=G2 | A4
A2=c2 | B4E2F2 | E4=D2=C2 | =D4
F2A2 | =G4F2F2 | E4z2

